resources/svg/host.svg

<svg viewBox="0 0 24 24"><path fill="none" stroke="currentColor" stroke-width="2" d="M17 4h1v1h-1V4zM3 1h18v22H3V1zm0 12h18H3zm0 5h18H3zM3 8h18H3z"/></svg>

<svg xmlns="http://www.w3.org/2000/svg" viewBox="0 0 24 24" fill="currentColor"><path fill="none" stroke="currentColor" stroke-width="2" d="M17,4 L18,4 L18,5 L17,5 L17,4 Z M3,1 L21,1 L21,23 L3,23 L3,1 Z M3,13 L21,13 L3,13 Z M3,18 L21,18 L3,18 Z M3,8 L21,8 L3,8 Z"/></svg>
